X: 19599
T: Jammed Sax, The
R: reel
M: 4/4
K: Amajor
F3 c ef (B2|B)AB=c BAFE|~F3 c efBA|B=cBA F^cAE|
F3 c ef (B2|B)AB=c BAFE|~F3 c efBA|B=cBA .F2 z2:|
a3 e fa (B2|B)AB=c BA^ce|~a3 e faBA|B=cBA F^cef|
a3 e fa (B2|B)AB=c BAFE|~F3 c efBA|B=cBA .F2 z2:|

